icons/bhi_person-circle.svg

<svg xmlns="http://www.w3.org/2000/svg" viewBox="0 0 512 512" enable-background="new 0 0 512 512"><path fill="#010101" d="M256 512c-140.8 0-256-115.2-256-256s115.2-256 256-256 256 115.2 256 256-115.2 256-256 256zm0-473.6c-119.5 0-217.6 98.1-217.6 217.6s98.1 217.6 217.6 217.6 217.6-98.1 217.6-217.6-98.1-217.6-217.6-217.6z"/><g fill="#010101"><path d="M224.1 253.7l-81.1 38.4c-17.1 10.7-25.6 34.1-19.2 51.2l4.3 8.5h102.4l-6.4-98.1zM288.1 253.7l81.1 38.4c17.1 10.7 25.6 34.1 19.2 51.2l-4.3 8.5h-102.4l6.4-98.1zM264.7 251.6v108.8l-8.6 8.5-8.5-8.5v-108.8z"/></g><path fill="#010101" d="M256.3 232.5c32 0 59.7-27.7 59.7-59.7s-27.7-59.7-59.7-59.7-59.7 27.7-59.7 59.7 25.5 59.7 59.7 59.7z"/></svg>

<?xml version="1.0" encoding="utf-8"?>
<!-- Generator: Adobe Illustrator 19.2.0, SVG Export Plug-In . SVG Version: 6.00 Build 0)  -->
<svg version="1.1" id="Layer_1" xmlns="http://www.w3.org/2000/svg" xmlns:xlink="http://www.w3.org/1999/xlink" x="0px" y="0px"
	 viewBox="0 0 512 512" enable-background="new 0 0 512 512" xml:space="preserve">
<g>
	<path fill="#010101" d="M256,512C115.2,512,0,396.8,0,256S115.2,0,256,0s256,115.2,256,256S396.8,512,256,512z M256,38.4
		C136.5,38.4,38.4,136.5,38.4,256S136.5,473.6,256,473.6S473.6,375.5,473.6,256S375.5,38.4,256,38.4z"/>
</g>
<g>
	<path fill="#010101" d="M224.1,253.7l-81.1,38.4c-17.1,10.7-25.6,34.1-19.2,51.2l4.3,8.5h102.4L224.1,253.7z"/>
	<path fill="#010101" d="M288.1,253.7l81.1,38.4c17.1,10.7,25.6,34.1,19.2,51.2l-4.3,8.5H281.7L288.1,253.7z"/>
	<polygon fill="#010101" points="264.7,251.6 264.7,360.4 256.1,368.9 247.6,360.4 247.6,251.6 	"/>
</g>
<path fill="#010101" d="M256.3,232.5c32,0,59.7-27.7,59.7-59.7s-27.7-59.7-59.7-59.7s-59.7,27.7-59.7,59.7S222.1,232.5,256.3,232.5z
	"/>
</svg>
